!!!!SEGMENT: pl-kk--kk-i-487--002_anonim--boze-wieczny-boze-zywy.krn
!!!cenid: 18xx:1357
!!!COM: Anonim
!!!COM-rismid: pe30004985
!!!CDT:
!!!CNT:
!!!OTL: Boże wieczny Boże żywy
!!!PDT:
!!!AGN: Sacred
!!!SMS-siglum: PL-Kk
!!!SMS-shelfmark: Kk.I.487
!!!SMS-shelfwork: 002 W
!!!SMS-variant:
!!!SMS-altvar:
!!!NIFC-rismid: 1001141042
!!!URL-scan: http://repozytorium.nifc.pl/skany/pl-kk-nut--i-487
!!!ONB-nifc:
**kern	**text	**text	**kern	**text	**text	**kern	**text	**text	**kern
*part4	*part4	*part4	*part3	*part3	*part3	*part2	*part2	*part2	*part1
*staff4	*staff4	*staff4	*staff3	*staff3	*staff3	*staff2	*staff2	*staff2	*staff1
*Iempty	*	*	*Itenor	*	*	*Ialto	*	*	*Isoprn
*I"Bas	*	*	*I"Tenor	*	*	*I"alt.	*	*	*I"Sopran
*I'B	*	*	*I'T	*	*	*I'A	*	*	*I'S
*clefF4	*	*	*clefC4	*	*	*clefC3	*	*	*clefC1
*k[b-e-]	*	*	*k[b-e-]	*	*	*k[b-e-]	*	*	*k[b-e-]
*g:	*	*	*g:	*	*	*g:	*	*	*g:
*M4/4	*	*	*M4/4	*	*	*M4/4	*	*	*M4/4
*met(c)	*	*	*met(c)	*	*	*met(c)	*	*	*met(c)
=1	=1	=1	=1	=1	=1	=1	=1	=1	=1
*2\right	*	*	*2\right	*	*	*2\right	*	*	*2\right
!LO:TX:t=P:problem:all\right:global	!	!	!LO:TX:t=P:problem:all\right:global	!	!	!LO:TX:t=P:problem:all\right:global	!	!	!LO:TX:t=P:problem:w źródle brakuje strony z pieśnią "Boże wieczny Boże żywy"
!LO:TX:a:t=2.	!	!	!LO:TX:a:t=2.	!	!	!LO:TX:a:t=2.	!	!	!
!LO:TX:t=P:problem:oznaczenie numeru utworu "2" przed kluczem	!	!	!LO:TX:t=P:problem:oznaczenie numeru utworu "2" przed kluczem	!	!	!LO:TX:t=P:problem:oznaczenie numeru utworu "2" przed kluczem	!	!	!
4G\	Bo-	Kto-	4B-\	Bo-	Kto-	4d\	Bo-	Kto-	1ryy
4Fn\	-że	-ryś	4A\	-że	-ryś	4d\	-że	-ryś	.
4En\	wie-	iest	4A\	wie-	jest	4g\	wiecz-	jest	.
4D\	-czny	na	4A\	-czny	na	4f\	-ny	na	.
=2	=2	=2	=2	=2	=2	=2	=2	=2	=2
(>4C#X\	Bo-	wy-	(>4B-\	Bo-	wy-	(>4g\	Bo-	wy-	1ryy
8D\)	.	.	8A\)	.	.	8f\)	.	.	.
8En\	-że	-so-	8A\	-że	-so-	8g\	-że	-so-	.
4D\	ży-	-ko-	4A\	ży-	-ko-	4f\	ży-	-ko-	.
4A;>\	-wy	-śći	4c#X;>\	-wy	-śći	4en;>\	-wy	-śći	.
=3	=3	=3	=3	=3	=3	=3	=3	=3	=3
4D\	od-	schyl	4d\	od-	schyl	4f\	od-	schyl	1ryy
8.En\	-ku-	nie-	8.G/	-ku-	nie-	8.g\	-ku-	nie-	.
16E\	-pi-	-ba	16c\	-pi-	-ba	16g\	-pi-	-ba	.
(>4F\	-cie-	u-	2c\	-cie-	u-	(>4f\	-cie-	u-	.
4E-X\)	.	.	.	.	.	4g\)	.	.	.
=4	=4	=4	=4	=4	=4	=4	=4	=4	=4
4D\	-lu	-zycz	4d\	-lu	-życz	4g\	-lu	-życz	1ryy
4C/	praw-	li-	4d\	praw-	li-	4f#X\	praw-	li-	.
(<4BB-/	-dzi-	-to-	(>4G/	-dzi-	-to-	(>4d\	-dzi-	-to-	.
4GG/)	.	.	4d\)	.	.	4g\)	.	.	.
=5	=5	=5	=5	=5	=5	=5	=5	=5	=5
2.D\	-wy	-śći	2.d\	-wy	-śći	2.f#X\	-wy	-śći	1ryy
4r	.	.	4r	.	.	4r	.	.	.
!LO:LB:g=original	!	!	!LO:LB:g=original	!	!	!LO:LB:g=original	!	!	!
=6!|:	=6!|:	=6!|:	=6!|:	=6!|:	=6!|:	=6!|:	=6!|:	=6!|:	=6!|:
4Fn\	wy-	spuść	4A\	wy-	spuść	4c\	wy-	spuść	1ryy
4F\	-słu-	się	4A\	-słu-	się	4c\	-słu-	sie	.
4E-X\	-chaj	w_na-	(>8c\L	-chaj	w_na-	4g\	-chaj	w_na-	.
.	.	.	8G\J)	.	.	.	.	.	.
4D\	nasz	-sze	4A\	nasz	-sze	4d\	nasz	-sze	.
=7	=7	=7	=7	=7	=7	=7	=7	=7	=7
*	*	*	*	*	*	*^	*	*	*
4D\	głos	głe-	4B-\	głos	głe-	4d\	2ryy	głos	głe-	1ryy
4D\	pła-	-bo-	4F#X/	pła-	-bo-	4d\	.	pła-	-bo-	.
2D^>\	-czli-	-ko-	2G/	-czli-	-ko-	2en/	2c#X\	-czli-	-ko-	.
=8	=8	=8	=8	=8	=8	=8	=8	=8	=8	=8
2.D\	-wy	-śći	2.F#X/	-wy	-śći	2.d/	2.d\	-wy	-śći	1ryy
4r	.	.	4r	.	.	4r	4ryy	.	.	.
*	*	*	*	*	*	*v	*v	*	*	*
=:|!	=:|!	=:|!	=:|!	=:|!	=:|!	=:|!	=:|!	=:|!	=:|!
*-	*-	*-	*-	*-	*-	*-	*-	*-	*-
!!!system-decoration: [(s1,s2,s3,s4)]
!!!RDF**kern: > = above
!!!RDF**kern: < = below
!!!EED: Mateusz Mrugas
!!!EST: 2021-01-18
!!!ENC: Andrzej Kubiczek
!!!END: 2021-01-14
